images/reddit_1.svg

<?xml version="1.0" encoding="UTF-8"?>
<svg width="32px" height="32px" viewBox="0 0 32 32" version="1.1" xmlns="http://www.w3.org/2000/svg" xmlns:xlink="http://www.w3.org/1999/xlink">
    <!-- Generator: Sketch 47.1 (45422) - http://www.bohemiancoding.com/sketch -->
    <title>reddit</title>
    <desc>Created with Sketch.</desc>
    <defs></defs>
    <g id="лендинг" stroke="none" stroke-width="1" fill="none" fill-rule="evenodd">
        <g id="Sharpay-home-Copy" transform="translate(-440.000000, -765.000000)" fill="#FFFFFF">
            <g id="reddit" transform="translate(440.000000, 765.000000)">
                <path d="M16,32 C7.16346667,32 0,24.8365333 0,16 C0,7.16346667 7.16346667,0 16,0 C24.8365333,0 32,7.16346667 32,16 C32,24.8365333 24.8365333,32 16,32 Z M27.7333333,15.7916771 C27.7333333,14.3283278 26.5376747,13.1376665 25.0675947,13.1376665 C24.395232,13.1376665 23.7817653,13.3890825 23.3124107,13.7995491 C21.6421867,12.7313571 19.4340693,12.0362638 16.988784,11.9145785 L18.2746133,7.86830645 L21.7828907,8.69079179 C21.8222422,9.86951712 22.7950827,10.8173198 23.9889227,10.8173198 C25.2072533,10.8173198 26.1986027,9.83059445 26.1986027,8.61736245 C26.1986027,7.40413045 25.2069973,6.41740512 23.9889227,6.41740512 C23.103904,6.41740512 22.3411093,6.93917792 21.9882507,7.68849845 L18.046064,6.76507979 C17.7849365,6.70410699 17.5196395,6.85381472 17.439632,7.10860405 L15.9174347,11.8987427 C13.3139787,11.9495968 10.9521067,12.6496174 9.18207467,13.7645134 C8.71793547,13.3742862 8.1188,13.1376601 7.46572267,13.1376601 C5.99564267,13.1379195 4.799984,14.3283214 4.799984,15.7916707 C4.799984,16.7233881 5.2857536,17.5425027 6.01701333,18.0157561 C5.97974667,18.2534211 5.95968,18.4941993 5.95968,18.7378307 C5.95968,22.5116707 10.561984,25.5820974 16.2197333,25.5820974 C21.87696,25.5820974 26.4797867,22.5116547 26.4797867,18.7378307 C26.4797867,18.5118414 26.4625867,18.2884467 26.4305321,18.0673881 C27.2084414,17.6045123 27.7333001,16.7591961 27.7333001,15.7916707 L27.7333333,15.7916771 Z M25.4530507,18.7383598 C25.4530507,21.9481305 21.3104587,24.5601198 16.2197707,24.5601198 C11.1283093,24.5601198 6.98649067,21.9484025 6.98649067,18.7383598 C6.98649067,18.6252355 6.99274523,18.5136681 7.00264827,18.4023598 C7.03366037,18.0611705 7.11288453,17.7275065 7.23354533,17.4042211 C7.54653307,16.5661678 8.14696933,15.7971278 8.96709733,15.1414745 C9.22952773,14.9315715 9.51384933,14.7333449 9.81823867,14.5483491 C11.479604,13.5387918 13.7359293,12.9160878 16.2197853,12.9160878 C18.7395827,12.9160878 21.026404,13.5564345 22.6932253,14.5919385 C22.9983949,14.7810846 23.2819347,14.9839817 23.54306,15.1985571 C24.330612,15.8443491 24.906292,16.5973038 25.2098973,17.4158958 C25.3295155,17.7402201 25.40874,18.0741465 25.4384488,18.4161145 C25.44757,18.5232713 25.4530427,18.6301683 25.4530427,18.738363 L25.4530507,18.7383598 Z M14.411424,17.5077067 C14.411424,16.6457813 13.7093493,15.9226667 12.8433547,15.9226667 C11.9776213,15.9226667 11.2515733,16.6457813 11.2515733,17.5077067 C11.2515733,18.3693707 11.9778827,19.069136 12.8433547,19.069136 C13.7093493,19.0680982 14.411424,18.369376 14.411424,17.5077067 Z M19.7137013,15.9221867 C18.847968,15.9221867 18.1195733,16.64504 18.1195733,17.5069653 C18.1195733,18.3691467 18.847968,19.0683947 19.7137013,19.0683947 C20.579696,19.0683947 21.282288,18.3696693 21.282288,17.5069653 C21.2817668,16.6445227 20.579696,15.9221867 19.7137013,15.9221867 Z M19.2706667,21.291944 C18.689776,21.8695013 17.7117227,22.149976 16.2786507,22.149976 C16.2742204,22.149976 16.2703113,22.1512733 16.2661415,22.1512733 C16.2617113,22.1512733 16.2580628,22.149976 16.2538931,22.149976 C14.8205597,22.149976 13.8422451,21.8695003 13.2621331,21.291944 C13.0617272,21.09216 12.7364904,21.09216 12.5360851,21.291944 C12.3354184,21.4919872 12.3354184,21.8155333 12.5360851,22.014536 C13.3181651,22.793432 14.5344104,23.172504 16.2538931,23.172504 C16.2583234,23.172504 16.2619718,23.1709473 16.2661415,23.1709473 C16.2703113,23.1709473 16.2742204,23.172504 16.2786507,23.172504 C17.9978667,23.172504 19.2143787,22.7934336 19.9972373,22.0150533 C20.1981648,21.8150101 20.1981648,21.4917237 19.9977586,21.2924613 C19.7968311,21.0926773 19.4715948,21.0926773 19.2706652,21.2919424 L19.2706667,21.291944 Z M23.988944,7.44021045 C24.6412427,7.44021045 25.1718347,7.96872939 25.1718347,8.61815712 C25.1718347,9.26758645 24.6412405,9.79584245 23.988944,9.79584245 C23.336384,9.79584245 22.805792,9.26758325 22.805792,8.61815712 C22.805792,7.96872779 23.3363861,7.44021045 23.988944,7.44021045 Z" id="Combined-Shape"></path>
            </g>
        </g>
    </g>
</svg>

<?xml version="1.0" encoding="utf-8"?>
<!-- Generator: Adobe Illustrator 22.0.0, SVG Export Plug-In . SVG Version: 6.00 Build 0)  -->
<svg version="1.1" id="Слой_1" xmlns="http://www.w3.org/2000/svg" xmlns:xlink="http://www.w3.org/1999/xlink" x="0px" y="0px"
	 viewBox="0 0 32 32" style="enable-background:new 0 0 32 32;" xml:space="preserve">
<style type="text/css">
	.st0{fill:#FFFFFF;}
	.st1{fill:#E74A1E;}
</style>
<title>reddit</title>
<desc>Created with Sketch.</desc>
<g id="лендинг">
	<g id="Sharpay-home-Copy" transform="translate(-440.000000, -765.000000)">
		<g id="reddit" transform="translate(440.000000, 765.000000)">
			<path class="st0" d="M16,1.7C8.1,1.7,1.7,8.1,1.7,16c0,7.9,6.4,14.3,14.3,14.3S30.3,23.9,30.3,16C30.3,8.1,23.9,1.7,16,1.7z"/>
			<path id="Combined-Shape" class="st1" d="M16,32C7.2,32,0,24.8,0,16S7.2,0,16,0s16,7.2,16,16S24.8,32,16,32z M27.7,15.8
				c0-1.5-1.2-2.7-2.7-2.7c-0.7,0-1.3,0.3-1.8,0.7c-1.7-1.1-3.9-1.8-6.3-1.9l1.3-4l3.5,0.8c0,1.2,1,2.1,2.2,2.1c1.2,0,2.2-1,2.2-2.2
				s-1-2.2-2.2-2.2c-0.9,0-1.6,0.5-2,1.3L18,6.8c-0.3-0.1-0.5,0.1-0.6,0.3l-1.5,4.8c-2.6,0.1-5,0.8-6.7,1.9
				c-0.5-0.4-1.1-0.6-1.7-0.6c-1.5,0-2.7,1.2-2.7,2.7c0,0.9,0.5,1.8,1.2,2.2C6,18.3,6,18.5,6,18.7c0,3.8,4.6,6.8,10.3,6.8
				c5.7,0,10.3-3.1,10.3-6.8c0-0.2,0-0.4,0-0.7C27.2,17.6,27.7,16.8,27.7,15.8L27.7,15.8z M25.5,18.7c0,3.2-4.1,5.8-9.2,5.8
				c-5.1,0-9.2-2.6-9.2-5.8c0-0.1,0-0.2,0-0.3c0-0.3,0.1-0.7,0.2-1c0.3-0.8,0.9-1.6,1.7-2.3c0.3-0.2,0.5-0.4,0.9-0.6
				c1.7-1,3.9-1.6,6.4-1.6c2.5,0,4.8,0.6,6.5,1.7c0.3,0.2,0.6,0.4,0.8,0.6c0.8,0.6,1.4,1.4,1.7,2.2c0.1,0.3,0.2,0.7,0.2,1
				C25.4,18.5,25.5,18.6,25.5,18.7L25.5,18.7z M14.4,17.5c0-0.9-0.7-1.6-1.6-1.6c-0.9,0-1.6,0.7-1.6,1.6c0,0.9,0.7,1.6,1.6,1.6
				C13.7,19.1,14.4,18.4,14.4,17.5z M19.7,15.9c-0.9,0-1.6,0.7-1.6,1.6c0,0.9,0.7,1.6,1.6,1.6c0.9,0,1.6-0.7,1.6-1.6
				C21.3,16.6,20.6,15.9,19.7,15.9z M19.3,21.3c-0.6,0.6-1.6,0.9-3,0.9c0,0,0,0,0,0c0,0,0,0,0,0c-1.4,0-2.4-0.3-3-0.9
				c-0.2-0.2-0.5-0.2-0.7,0c-0.2,0.2-0.2,0.5,0,0.7c0.8,0.8,2,1.2,3.7,1.2c0,0,0,0,0,0s0,0,0,0c1.7,0,2.9-0.4,3.7-1.2
				c0.2-0.2,0.2-0.5,0-0.7C19.8,21.1,19.5,21.1,19.3,21.3L19.3,21.3z M24,7.4c0.7,0,1.2,0.5,1.2,1.2c0,0.6-0.5,1.2-1.2,1.2
				c-0.7,0-1.2-0.5-1.2-1.2C22.8,8,23.3,7.4,24,7.4z"/>
		</g>
	</g>
</g>
</svg>
